storage/app/icons/phosphoricons/fill/command-fill.svg

<svg xmlns="http://www.w3.org/2000/svg" fill="currentColor" viewBox="0 0 256 256"><path d="M116 116h24v24h-24ZM86 72a14 14 0 0 0 0 28h14V86a14 14 0 0 0-14-14m98 14a14 14 0 0 0-28 0v14h14a14 14 0 0 0 14-14M72 170a14 14 0 0 0 28 0v-14H86a14 14 0 0 0-14 14M224 48v160a16 16 0 0 1-16 16H48a16 16 0 0 1-16-16V48a16 16 0 0 1 16-16h160a16 16 0 0 1 16 16m-68 92v-24h14a30 30 0 1 0-30-30v14h-24V86a30 30 0 1 0-30 30h14v24H86a30 30 0 1 0 30 30v-14h24v14a30 30 0 1 0 30-30Zm0 30a14 14 0 1 0 14-14h-14Z"/></svg>

<svg xmlns="http://www.w3.org/2000/svg" viewBox="0 0 256 256" fill="currentColor"><path d="M116,116h24v24H116ZM86,72a14,14,0,0,0,0,28h14V86A14,14,0,0,0,86,72Zm98,14a14,14,0,0,0-28,0v14h14A14,14,0,0,0,184,86ZM72,170a14,14,0,0,0,28,0V156H86A14,14,0,0,0,72,170ZM224,48V208a16,16,0,0,1-16,16H48a16,16,0,0,1-16-16V48A16,16,0,0,1,48,32H208A16,16,0,0,1,224,48Zm-68,92V116h14a30,30,0,1,0-30-30v14H116V86a30,30,0,1,0-30,30h14v24H86a30,30,0,1,0,30,30V156h24v14a30,30,0,1,0,30-30Zm0,30a14,14,0,1,0,14-14H156Z"/></svg>
